build/img/landings/express-smm/features-4.svg

<svg width="322" height="279" viewBox="0 0 322 279" fill="none" xmlns="http://www.w3.org/2000/svg">
<path d="M273.051 66.439C276.368 74.5015 278.063 83.1389 278.038 91.8559C278.012 100.573 276.268 109.198 272.905 117.237C268.783 126.958 262.442 135.576 254.389 142.4L274.548 191.488L193.771 170.744L116.802 202.352C100.529 209.035 82.2653 208.973 66.0286 202.181C49.7918 195.389 36.9122 182.422 30.223 166.133C23.5339 149.845 23.5831 131.568 30.36 115.325C37.1368 99.0818 50.0862 86.2022 66.3592 79.5194L186.448 30.2035C194.508 26.8913 203.142 25.2012 211.857 25.2298C220.572 25.2584 229.197 27.0051 237.24 30.3701C245.283 33.7352 252.585 38.6527 258.729 44.8415C264.874 51.0303 269.741 58.3693 273.051 66.439Z" fill="#FFD400" stroke="black" stroke-width="7" stroke-linecap="round" stroke-linejoin="round"/>
<path d="M213.467 109.95C203.904 113.877 192.965 109.301 189.034 99.729C185.103 90.1569 189.669 79.2137 199.232 75.2865C208.795 71.3594 219.733 75.9355 223.664 85.5075C227.595 95.0796 223.03 106.023 213.467 109.95Z" fill="black"/>
<path d="M156.807 133.218C147.244 137.145 136.305 132.569 132.374 122.997C128.443 113.425 133.009 102.481 142.571 98.5541C152.134 94.6269 163.073 99.203 167.004 108.775C170.935 118.347 166.369 129.29 156.807 133.218Z" fill="black"/>
<path d="M103.931 154.932C94.3686 158.859 83.4296 154.283 79.4987 144.711C75.5678 135.139 80.1335 124.196 89.6965 120.268C99.2594 116.341 110.198 120.917 114.129 130.489C118.06 140.062 113.494 151.005 103.931 154.932Z" fill="black"/>
</svg>

<svg width="322" height="279" fill="none" xmlns="http://www.w3.org/2000/svg"><path d="M273.051 66.439a66.278 66.278 0 01-.146 50.798 67.54 67.54 0 01-18.516 25.163l20.159 49.088-80.777-20.744-76.969 31.608a66.298 66.298 0 01-50.773-.171 66.424 66.424 0 01-35.806-36.048 66.426 66.426 0 01.137-50.808 66.298 66.298 0 0136-35.806l120.088-49.316a66.274 66.274 0 0125.409-4.973 66.33 66.33 0 0125.383 5.14 66.436 66.436 0 0135.811 36.069z" fill="#FFD400" stroke="#000" stroke-width="7" stroke-linecap="round" stroke-linejoin="round"/><path d="M213.467 109.95c-9.563 3.927-20.502-.649-24.433-10.221-3.931-9.572.635-20.515 10.198-24.442 9.563-3.928 20.501.648 24.432 10.22 3.931 9.573-.634 20.516-10.197 24.443zm-56.66 23.268c-9.563 3.927-20.502-.649-24.433-10.221-3.931-9.572.635-20.516 10.197-24.443 9.563-3.927 20.502.649 24.433 10.221 3.931 9.572-.635 20.515-10.197 24.443zm-52.876 21.714c-9.562 3.927-20.501-.649-24.432-10.221-3.931-9.572.635-20.515 10.198-24.443 9.562-3.927 20.501.649 24.432 10.221 3.931 9.573-.635 20.516-10.198 24.443z" fill="#000"/></svg>
